assets/images/mail.svg

<?xml version="1.0" encoding="utf-8"?>
<!-- Generated by IcoMoon.io -->
<!DOCTYPE svg PUBLIC "-//W3C//DTD SVG 1.1//EN" "http://www.w3.org/Graphics/SVG/1.1/DTD/svg11.dtd">
<svg version="1.1" xmlns="http://www.w3.org/2000/svg" xmlns:xlink="http://www.w3.org/1999/xlink" width="768" height="768" viewBox="0 0 768 768">
<g id="icomoon-ignore">
</g>
<path fill="#000" d="M128 96h512q39.75 0 67.875 28.125t28.125 67.875v384q0 39.75-28.125 67.875t-67.875 28.125h-512q-39.75 0-67.875-28.125t-28.125-67.875v-384q0-39.75 28.125-67.875t67.875-28.125zM672 576v-349.5l-268 214.5q-8.5 7-20 7t-20-7l-268-214.5v349.5q0 13.25 9.375 22.625t22.625 9.375h512q13.25 0 22.625-9.375t9.375-22.625zM640 160h-512q-4.75 0-10.5 1.75l266.5 213.25 266.5-213.25q-5.75-1.75-10.5-1.75z"></path>
</svg>

<svg xmlns="http://www.w3.org/2000/svg" width="768" height="768"><path d="M128 96h512q39.75 0 67.875 28.125T736 192v384q0 39.75-28.125 67.875T640 672H128q-39.75 0-67.875-28.125T32 576V192q0-39.75 28.125-67.875T128 96zm544 480V226.5L404 441q-8.5 7-20 7t-20-7L96 226.5V576q0 13.25 9.375 22.625T128 608h512q13.25 0 22.625-9.375T672 576zm-32-416H128q-4.75 0-10.5 1.75L384 375l266.5-213.25Q644.75 160 640 160z"/></svg>
